svg/u1f41c.svg

<svg viewBox="0 0 128 128" xmlns="http://www.w3.org/2000/svg">
  <path d="M31.1,76.99c0,0-3.75,3.47-4.97,6.95c-1.22,3.47-3.28,11.92-4.13,12.67s-3.66,2.06-4.69,2.53 c-1.03,0.47-3.28,0.94-3.28,2.53s2.06,1.6,5.63,1.03s4.88-0.75,5.54-1.6s4.32-14.17,4.88-15.02c0.56-0.84,1.6-3.19,4.79-5.63 c3.19-2.44,6.85-5.44,6.85-5.44l-6.01-3.75L31.1,76.99z" fill="#868686"/>
  <path d="M12.56,44.94c0,0-1.08-2.53-4.13-1.74c-2.68,0.7-4.13,4.74-3.38,6.62s2.86,2.72,2.86,2.72 L12.56,44.94z" fill="#151413"/>
  <path d="M15,16.03c-0.75,0.08-1.97,5.02-5.54,4.32c-2.64-0.52-2.13-4.22,1.22-6.05 c3-1.64,4.93-0.99,6.76-0.33c2.7,0.97,5.4,3.94,6.71,7.41c1.31,3.47,2.87,7.83,3.52,12.95c0.66,5.21,0.28,5.4,0.28,5.4l-2.53,0.19 c0,0,0.47-1.31-0.47-6.99c-0.53-3.21-1.83-7.25-3-10.23C20.63,19.37,17.91,15.71,15,16.03z" fill="#5D6265"/>
  <path d="M36.35,19.51c-0.69-0.12-2.44,2.3-4.9,0.88c-2.18-1.26-1.15-4.5,2.09-4.82 c2.07-0.21,4.68,1.28,5.96,2.58c1.97,2.02,3.43,5.35,4.08,8.73c0.68,3.49,0.6,6.76-0.84,11.5c-1.55,5.07-3.38,7.18-3.38,7.18 l-1.97-2.02c0,0,1.36-1.88,2.82-5.91c1.06-2.94,1.69-6.19,0.99-10C40.54,24.1,38.32,19.84,36.35,19.51z" fill="#5D6265"/>
  <path d="M15.24,40.95C10.1,43.35,3.44,51.14,4.63,60.1c0.94,7.04,6.1,14.36,16.05,16.61 c9.95,2.25,16.05-0.94,16.05-0.94l4.97-0.75l4.32,6.01l12.86,0.09l8.45-3.47c0,0,5.89,8.38,7.83,11.33 c1.94,2.96,8.38,8.17,8.38,8.17s1.74,1.3,3.53,2.3c1.69,0.94,9.81,4.88,17.2,5.23c12.92,0.62,16.81-2.98,17.63-4.01 c0.4-0.51,0.83-2.52,1-3.59c0.13-0.84,1.51-8.79,0.47-15.02c-0.84-5.07-3.57-14.08-13.8-23.09s-24.12-11.26-32.85-6.19 c-8.23,4.78-11.07,11.73-11.07,11.73s-2.63-6.96-9.76-7.88c-5.82-0.75-8.35,2.25-8.35,2.25s0.56-12.67-12.2-18.4 C26.01,36.31,18.05,39.64,15.24,40.95z" fill="#5D6265"/>
  <path d="M52.31,58.78c-2.81,0.76-3.94,3.85-2.91,5.73c1.03,1.88,2.98,2.65,5.16,2.06 c2.82-0.75,3.94-3.28,3.28-5.16C57.19,59.54,54.75,58.13,52.31,58.78z" fill="#AFAFAE"/>
  <path d="M76.52,63.2c1.31,2.63,5.21,2.7,8.82,0.47c3.94-2.44,4.13-5.91,2.72-7.6 c-1.94-2.33-5.91-1.97-8.35-0.38C77.27,57.28,74.81,59.77,76.52,63.2z" fill="#AFAFAE"/>
  <path d="M19.93,49.63c-1.49,2.52-1.89,6.93,1.88,8.59c4.32,1.9,6.99-1.2,7.98-3.66 c0.94-2.35,1.09-6.34-2.25-7.7C24.04,45.44,21.41,47.14,19.93,49.63z" fill="#0A0A0A"/>
  <path d="M8.48,62.02c0.13,1.32,0,2.16-0.75,2.67c-0.93,0.64-1.67,0.32-1.67,0.32s-1.27-1.23-1.57-3.7 c-0.17-1.37,0.05-3.38,0.05-3.38S8.24,59.63,8.48,62.02z" fill="#44484E"/>
  <path d="M44.43,68.5c0.63,0.21-0.42,6.55,0.14,7.53c0.56,0.99,4.72,3.66,10.42,2.96 c5.7-0.7,8.24-4.26,9.15-6.26c0.58-1.26,1.13-3.31,1.55-3.38c0.42-0.07,3.38,4.65,5.42,7.18c2.04,2.53,3.31,4.58,7.39,8.59 c4.08,4.01,9.36,7.11,9.36,7.11s-1.1,1.39-1.99,2.49c-0.9,1.1-2.11,2.58-2.11,2.58s-6.42-4.86-9.62-8.97c-3.12-4.01-6.4-8-6.9-7.07 c-0.25,0.46,1.89,3.4,2.78,5.03c1.27,2.32,2.64,4.58,3.17,5.81c0.51,1.19,2.69,6.77,3.77,10.42c0.7,2.39,1.15,5.25,1.34,5.42 c0.53,0.46,3.87,3.73,4.72,4.5c0.84,0.77,2.39,2.46,1.27,3.66c-1.13,1.2-3.59-0.6-4.15-1.02s-5.98-3.98-6.62-4.75 c-0.63-0.77-1.56-5.16-1.97-6.83c-0.46-1.87-3.17-8.31-3.59-9.57c-0.42-1.27-2.96-5.68-3.66-6.65c-1.09-1.51-1.9-3.52-3.59-3.03 c-0.84,0.25-1.58,0.39-2.29,0.7c-0.14,0.92-0.25,13.34-0.46,14.47c-0.21,1.13-0.84,10.28-0.77,11.12c0.07,0.84,4.08,6.12,4.58,6.76 c0.49,0.63,0.63,1.9-0.21,2.6c-0.84,0.7-3.17,0.28-3.8-0.21c-0.63-0.49-4.79-4.65-5.14-5.84c-0.35-1.2-0.28-12.32-0.28-14.15 s0.42-14.08,0.14-14.64c-0.42-0.07-1.16,0-3.55-0.49c-1.37-0.28-2.5-0.95-2.92-0.99c-0.21,0.39-3.87,9.15-4.58,11.76 c-0.7,2.6-3.66,15.63-4.01,16.26c-0.35,0.63-3.17,3.2-6.26,4.22c-1.62,0.53-6.55,1.76-7.53,0.49c-0.99-1.27,2.75-3.8,4.72-4.86 c1.97-1.06,4.29-2.46,4.58-2.75c0.28-0.28,2.46-12.88,2.75-14.36s5-12.67,4.93-13.16c-2.18-1.9-4.01-5.28-4.01-5.28 s2.71-1.06,4.68-2.89C42.83,71.51,44.43,68.5,44.43,68.5z" fill="#4D4D4D"/>
  <path d="M91.05,94.24c0,0-1.35,1.82-2.21,2.89c-1.1,1.36-2.09,2.18-2.09,2.18s4.76,2.33,7.61,3.35 c4.42,1.57,7.13,1.74,7.13,1.74s1.35-1.6,2.2-2.63c1.13-1.36,2.06-2.82,2.06-2.82s-4.8-0.58-8.17-1.74 C93.06,95.67,91.05,94.24,91.05,94.24z" fill="#4D4D4D"/>
  <path d="M109.92,99.54c0,0-1.27,1.88-2.16,3.15c-0.7,1-1.74,2.02-1.74,2.02s6.81,0.21,10.45-0.95 c2-0.64,4.45-1.72,5.34-2.89c0.65-0.84,1.17-4.36,1.17-4.36s-2.18,2.39-6.57,2.86C113.14,99.73,109.92,99.54,109.92,99.54z" fill="#4D4D4D"/>
  <path d="M105.76,98.95c0,0,0.45,0.06,1.93,0.29c2.03,0.31,2.27,0.26,2.27,0.26s4.53-7.64,6.69-14.11 c2.23-6.7,2.46-14.92,2.46-14.92s-1.2-1.97-1.67-2.67c-0.47-0.7-1.64-2.21-1.64-2.21s-0.76,11.57-3.1,18.82 C109.91,93.07,105.76,98.95,105.76,98.95z" fill="#838383"/>
  <path d="M87.86,92.22c0,0,6.86-9.87,9.22-16.82c1.06-3.12,2.57-9.4,2.96-12.07 c0.79-5.49,0.28-10.31,0.28-10.31s1.03,0.37,2.29,1.06c0.77,0.42,1.69,1.06,1.69,1.06s0.66,3.81-0.39,9.57 c-0.81,4.47-1.96,8.91-3.41,13.02c-2.22,6.26-9.42,16.54-9.42,16.54L87.86,92.22z" fill="#838383"/>
</svg>

<svg viewBox="0 0 128 128" xmlns="http://www.w3.org/2000/svg">
  <defs/>
  <path d="M31.1,76.99 C31.1,76.99 27.35,80.46 26.13,83.94 C24.91,87.41 22.85,95.86 22,96.61 C21.15,97.36 18.34,98.67 17.31,99.14 C16.28,99.61 14.03,100.08 14.03,101.67 C14.03,103.26 16.09,103.27 19.66,102.7 C23.23,102.13 24.54,101.95 25.2,101.1 C25.86,100.25 29.52,86.93 30.08,86.08 C30.64,85.24 31.68,82.89 34.87,80.45 C38.06,78.01 41.72,75.01 41.72,75.01 L35.71,71.26 L31.1,76.99 Z" fill="#868686"/>
  <path d="M12.56,44.94 C12.56,44.94 11.48,42.41 8.43,43.2 C5.75,43.9 4.3,47.94 5.05,49.82 C5.8,51.7 7.91,52.54 7.91,52.54 L12.56,44.94 Z" fill="#151413"/>
  <path d="M15,16.03 C14.25,16.11 13.03,21.05 9.46,20.35 C6.82,19.83 7.33,16.13 10.68,14.3 C13.68,12.66 15.61,13.31 17.44,13.97 C20.14,14.94 22.84,17.91 24.15,21.38 C25.46,24.85 27.02,29.21 27.67,34.33 C28.33,39.54 27.95,39.73 27.95,39.73 L25.42,39.92 C25.42,39.92 25.89,38.61 24.95,32.93 C24.42,29.72 23.12,25.68 21.95,22.7 C20.63,19.37 17.91,15.71 15,16.03 Z" fill="#5D6265"/>
  <path d="M36.35,19.51 C35.66,19.39 33.91,21.81 31.45,20.39 C29.27,19.13 30.3,15.89 33.54,15.57 C35.61,15.36 38.22,16.85 39.5,18.15 C41.47,20.17 42.93,23.5 43.58,26.88 C44.26,30.37 44.18,33.64 42.74,38.38 C41.19,43.45 39.36,45.56 39.36,45.56 L37.39,43.54 C37.39,43.54 38.75,41.66 40.21,37.63 C41.27,34.69 41.9,31.44 41.2,27.63 C40.54,24.1 38.32,19.84 36.35,19.51 Z" fill="#5D6265"/>
  <path d="M15.24,40.95 C10.1,43.35 3.44,51.14 4.63,60.1 C5.57,67.14 10.73,74.46 20.68,76.71 C30.63,78.96 36.73,75.77 36.73,75.77 L41.7,75.02 L46.02,81.03 L58.88,81.12 L67.33,77.65 C67.33,77.65 73.22,86.03 75.16,88.98 C77.1,91.94 83.54,97.15 83.54,97.15 C83.54,97.15 85.28,98.45 87.07,99.45 C88.76,100.39 96.88,104.33 104.27,104.68 C117.19,105.3 121.08,101.7 121.9,100.67 C122.3,100.16 122.73,98.15 122.9,97.08 C123.03,96.24 124.41,88.29 123.37,82.06 C122.53,76.99 119.8,67.98 109.57,58.97 C99.34,49.96 85.45,47.71 76.72,52.78 C68.49,57.56 65.65,64.51 65.65,64.51 C65.65,64.51 63.02,57.55 55.89,56.63 C50.07,55.88 47.54,58.88 47.54,58.88 C47.54,58.88 48.1,46.21 35.34,40.48 C26.01,36.31 18.05,39.64 15.24,40.95 Z" fill="#5D6265"/>
  <path d="M52.31,58.78 C49.5,59.54 48.37,62.63 49.4,64.51 C50.43,66.39 52.38,67.16 54.56,66.57 C57.38,65.82 58.5,63.29 57.84,61.41 C57.19,59.54 54.75,58.13 52.31,58.78 Z" fill="#AFAFAE"/>
  <path d="M76.52,63.2 C77.83,65.83 81.73,65.9 85.34,63.67 C89.28,61.23 89.47,57.76 88.06,56.07 C86.12,53.74 82.15,54.1 79.71,55.69 C77.27,57.28 74.81,59.77 76.52,63.2 Z" fill="#AFAFAE"/>
  <path d="M19.93,49.63 C18.44,52.15 18.04,56.56 21.81,58.22 C26.13,60.12 28.8,57.02 29.79,54.56 C30.73,52.21 30.88,48.22 27.54,46.86 C24.04,45.44 21.41,47.14 19.93,49.63 Z" fill="#0A0A0A"/>
  <path d="M8.48,62.02 C8.61,63.34 8.48,64.18 7.73,64.69 C6.8,65.33 6.06,65.01 6.06,65.01 C6.06,65.01 4.79,63.78 4.49,61.31 C4.32,59.94 4.54,57.93 4.54,57.93 C4.54,57.93 8.24,59.63 8.48,62.02 Z" fill="#44484E"/>
  <path d="M44.43,68.5 C45.06,68.71 44.01,75.05 44.57,76.03 C45.13,77.02 49.29,79.69 54.99,78.99 C60.69,78.29 63.23,74.73 64.14,72.73 C64.72,71.47 65.27,69.42 65.69,69.35 C66.11,69.28 69.07,74 71.11,76.53 C73.15,79.06 74.42,81.11 78.5,85.12 C82.58,89.13 87.86,92.23 87.86,92.23 C87.86,92.23 86.76,93.62 85.87,94.72 C84.97,95.82 83.76,97.3 83.76,97.3 C83.76,97.3 77.34,92.44 74.14,88.33 C71.02,84.32 67.74,80.33 67.24,81.26 C66.99,81.72 69.13,84.66 70.02,86.29 C71.29,88.61 72.66,90.87 73.19,92.1 C73.7,93.29 75.88,98.87 76.96,102.52 C77.66,104.91 78.11,107.77 78.3,107.94 C78.83,108.4 82.17,111.67 83.02,112.44 C83.86,113.21 85.41,114.9 84.29,116.1 C83.16,117.3 80.7,115.5 80.14,115.08 C79.58,114.66 74.16,111.1 73.52,110.33 C72.89,109.56 71.96,105.17 71.55,103.5 C71.09,101.63 68.38,95.19 67.96,93.93 C67.54,92.66 65,88.25 64.3,87.28 C63.21,85.77 62.4,83.76 60.71,84.25 C59.87,84.5 59.13,84.64 58.42,84.95 C58.28,85.87 58.17,98.29 57.96,99.42 C57.75,100.55 57.12,109.7 57.19,110.54 C57.26,111.38 61.27,116.66 61.77,117.3 C62.26,117.93 62.4,119.2 61.56,119.9 C60.72,120.6 58.39,120.18 57.76,119.69 C57.13,119.2 52.97,115.04 52.62,113.85 C52.27,112.65 52.34,101.53 52.34,99.7 C52.34,97.87 52.76,85.62 52.48,85.06 C52.06,84.99 51.32,85.06 48.93,84.57 C47.56,84.29 46.43,83.62 46.01,83.58 C45.8,83.97 42.14,92.73 41.43,95.34 C40.73,97.94 37.77,110.97 37.42,111.6 C37.07,112.23 34.25,114.8 31.16,115.82 C29.54,116.35 24.61,117.58 23.63,116.31 C22.64,115.04 26.38,112.51 28.35,111.45 C30.32,110.39 32.64,108.99 32.93,108.7 C33.21,108.42 35.39,95.82 35.68,94.34 C35.97,92.86 40.68,81.67 40.61,81.18 C38.43,79.28 36.6,75.9 36.6,75.9 C36.6,75.9 39.31,74.84 41.28,73.01 C42.83,71.51 44.43,68.5 44.43,68.5 Z" fill="#4D4D4D"/>
  <path d="M91.05,94.24 C91.05,94.24 89.7,96.06 88.84,97.13 C87.74,98.49 86.75,99.31 86.75,99.31 C86.75,99.31 91.51,101.64 94.36,102.66 C98.78,104.23 101.49,104.4 101.49,104.4 C101.49,104.4 102.84,102.8 103.69,101.77 C104.82,100.41 105.75,98.95 105.75,98.95 C105.75,98.95 100.95,98.37 97.58,97.21 C93.06,95.67 91.05,94.24 91.05,94.24 Z" fill="#4D4D4D"/>
  <path d="M109.92,99.54 C109.92,99.54 108.65,101.42 107.76,102.69 C107.06,103.69 106.02,104.71 106.02,104.71 C106.02,104.71 112.83,104.92 116.47,103.76 C118.47,103.12 120.92,102.04 121.81,100.87 C122.46,100.03 122.98,96.51 122.98,96.51 C122.98,96.51 120.8,98.9 116.41,99.37 C113.14,99.73 109.92,99.54 109.92,99.54 Z" fill="#4D4D4D"/>
  <path d="M105.76,98.95 C105.76,98.95 106.21,99.01 107.69,99.24 C109.72,99.55 109.96,99.5 109.96,99.5 C109.96,99.5 114.49,91.86 116.65,85.39 C118.88,78.69 119.11,70.47 119.11,70.47 C119.11,70.47 117.91,68.5 117.44,67.8 C116.97,67.1 115.8,65.59 115.8,65.59 C115.8,65.59 115.04,77.16 112.7,84.41 C109.91,93.07 105.76,98.95 105.76,98.95 Z" fill="#838383"/>
  <path d="M87.86,92.22 C87.86,92.22 94.72,82.35 97.08,75.4 C98.14,72.28 99.65,66 100.04,63.33 C100.83,57.84 100.32,53.02 100.32,53.02 C100.32,53.02 101.35,53.39 102.61,54.08 C103.38,54.5 104.3,55.14 104.3,55.14 C104.3,55.14 104.96,58.95 103.91,64.71 C103.1,69.18 101.95,73.62 100.5,77.73 C98.28,83.99 91.08,94.27 91.08,94.27 L87.86,92.22 Z" fill="#838383"/>
</svg>
